svg/spring.svg

<svg viewBox="0 0 20 20" xmlns="http://www.w3.org/2000/svg">
<rect width="100%" height="100%" fill="#6DB33F"/>
<path d="M16.5678 2.93749C16.3481 3.47145 16.0605 3.97484 15.712 4.4352C14.2427 2.91368 12.2292 2.03816 10.1144 2.00122C7.99958 1.96428 5.95672 2.76896 4.4352 4.23824C2.91369 5.70752 2.03816 7.72104 2.00122 9.83585C1.96428 11.9507 2.76896 13.9935 4.23824 15.515C4.3403 15.6271 4.45058 15.7314 4.56817 15.827L4.86412 16.0909C5.98919 17.0374 7.35401 17.6544 8.80777 17.8737C10.2615 18.0931 11.7476 17.9063 13.1019 17.334C14.4561 16.7617 15.6258 15.8261 16.4817 14.6307C17.3375 13.4352 17.8462 12.0264 17.9516 10.56C18.1815 8.57239 17.5716 5.9989 16.5678 2.93749ZM5.71995 15.909C5.63532 16.0129 5.52176 16.0895 5.39363 16.1289C5.26551 16.1683 5.12856 16.1689 5.00012 16.1305C4.87167 16.0921 4.7575 16.0165 4.67202 15.9132C4.58655 15.81 4.53362 15.6837 4.51992 15.5503C4.50622 15.4169 4.53237 15.2825 4.59506 15.164C4.65775 15.0455 4.75417 14.9483 4.87213 14.8846C4.99009 14.8209 5.12428 14.7936 5.25775 14.8061C5.39122 14.8187 5.51797 14.8706 5.62197 14.9551C5.75835 15.0707 5.84471 15.2345 5.86298 15.4123C5.88124 15.5901 5.82999 15.7681 5.71995 15.909V15.909ZM16.5178 13.5234C14.5602 16.1389 10.345 15.2511 7.66357 15.3831C7.66357 15.3831 7.18566 15.4151 6.70776 15.481C6.70776 15.481 6.88972 15.3991 7.11968 15.3171C9.01331 14.6592 9.90113 14.5172 11.0529 13.9333C13.2105 12.8316 15.3661 10.412 15.8 7.90852C14.9781 10.3081 12.4746 12.3877 10.2011 13.2255C8.63338 13.8014 5.81793 14.3713 5.81793 14.3713L5.70395 14.3053C3.80232 13.3575 3.72834 9.21027 7.21766 7.87653C8.74936 7.27665 10.1971 7.61258 11.8608 7.21866C13.6224 6.80674 15.66 5.489 16.4859 3.76133C17.3997 6.54279 18.5275 10.8559 16.5178 13.5234V13.5234Z" fill="white"/>
<path d="M16.5176 13.5234C14.56 16.1389 10.3448 15.2511 7.6633 15.3831C7.6633 15.3831 7.18539 15.4151 6.70748 15.4811C6.70748 15.4811 6.88945 15.3991 7.1194 15.3171C9.01303 14.6592 9.90086 14.5173 11.0526 13.9334C13.2102 12.8316 15.3658 10.4121 15.7997 7.90854C14.9779 10.3081 12.4744 12.3877 10.2008 13.2255C8.63311 13.8014 5.81766 14.3713 5.81766 14.3713L5.70368 14.3053C3.80205 13.3575 3.72806 9.21029 7.21738 7.87655C8.74908 7.27667 10.1968 7.6126 11.8605 7.21868C13.6221 6.80676 15.6597 5.48902 16.4856 3.76135C17.3994 6.54281 18.5272 10.856 16.5176 13.5234V13.5234ZM5.71967 15.909C5.63504 16.013 5.52149 16.0895 5.39336 16.1289C5.26523 16.1684 5.12829 16.1689 4.99984 16.1305C4.8714 16.0921 4.75722 16.0165 4.67175 15.9133C4.58627 15.81 4.53334 15.6837 4.51964 15.5503C4.50594 15.417 4.53209 15.2825 4.59478 15.164C4.65748 15.0455 4.7539 14.9483 4.87185 14.8846C4.98981 14.8209 5.12401 14.7936 5.25748 14.8062C5.39095 14.8187 5.51769 14.8706 5.62169 14.9552C5.75807 15.0707 5.84444 15.2345 5.8627 15.4124C5.88097 15.5902 5.82971 15.7681 5.71967 15.909V15.909Z" fill="#6DB33F"/>
</svg>

<svg xmlns="http://www.w3.org/2000/svg" viewBox="0 0 20 20">
  <rect width="100%" height="100%" fill="#6DB33F"/>
  <path fill="#fff" d="M16.57 2.94c-.22.53-.5 1.03-.86 1.5A7.98 7.98 0 1 0 4.57 15.83l.3.26a7.97 7.97 0 0 0 13.08-5.53c.23-1.99-.38-4.56-1.38-7.62ZM5.72 15.9a.68.68 0 1 1-.1-.95.7.7 0 0 1 .1.95Zm10.8-2.39c-1.96 2.62-6.17 1.73-8.86 1.86l-.95.1.41-.16c1.9-.66 2.78-.8 3.93-1.39 2.16-1.1 4.32-3.52 4.75-6.02-.82 2.4-3.33 4.48-5.6 5.32-1.57.57-4.38 1.14-4.38 1.14l-.12-.06c-1.9-.95-1.97-5.1 1.52-6.43 1.53-.6 2.98-.27 4.64-.66 1.76-.41 3.8-1.73 4.63-3.46.91 2.78 2.04 7.1.03 9.76Z"/>
  <path fill="#6DB33F" d="M16.52 13.52c-1.96 2.62-6.18 1.73-8.86 1.86l-.95.1.4-.16c1.9-.66 2.8-.8 3.94-1.39 2.16-1.1 4.32-3.52 4.75-6.02-.82 2.4-3.33 4.48-5.6 5.32a39.39 39.39 0 0 1-4.38 1.14l-.12-.06c-1.9-.95-1.97-5.1 1.52-6.43 1.53-.6 2.98-.27 4.64-.66 1.76-.41 3.8-1.73 4.63-3.46.9 2.78 2.04 7.1.03 9.76Zm-10.8 2.39a.68.68 0 1 1-.1-.95.7.7 0 0 1 .1.95Z"/>
</svg>
